packages/ffe-icons/icons/open/300/md/air_purifier.svg

<svg xmlns="http://www.w3.org/2000/svg" height="24" viewBox="0 -960 960 960" width="24"><path d="M140.001-212.309V-680q0-57.749 41.125-98.874 41.125-41.125 98.874-41.125h280q57.749 0 98.874 41.125 41.125 41.125 41.125 98.874v10.001q0 12.749-8.657 21.374Q682.686-640 669.889-640q-12.043 0-20.966-9.231-8.923-9.23-8.923-20.768V-680q0-33-23.5-56.5T560-760H280q-33 0-56.5 23.5T200-680v467.691q0 5.385 3.462 8.847 3.462 3.462 8.847 3.462h415.382q5.385 0 8.847-3.462 3.462-3.462 3.462-8.847v-37.692q0-12.749 8.629-21.374Q657.257-280 670.013-280q12.755 0 21.37 8.625 8.616 8.625 8.616 21.374v37.692q0 29.827-21.241 51.067-21.24 21.241-51.067 21.241H212.309q-29.827 0-51.067-21.241-21.241-21.24-21.241-51.067ZM420-340.001q57.749 0 98.874-41.125 41.125-41.125 41.125-98.874 0-57.749-41.125-98.874-41.125-41.125-98.874-41.125-57.749 0-98.874 41.125-41.125 41.125-41.125 98.874 0 57.749 41.125 98.874 41.125 41.125 98.874 41.125ZM420-400q-33 0-56.5-23.5T340-480q0-33 23.5-56.5T420-560q33 0 56.5 23.5T500-480q0 33-23.5 56.5T420-400Zm434.998-199.987q0 12.756-8.625 21.371-8.625 8.615-21.374 8.615-12.693 0-22.385 5.654-9.693 5.654-15.847 17.731-13.461 26.692-37.563 41.654-24.102 14.961-53.205 14.961-12.854 0-21.927-8.423-9.073-8.422-9.073-21.576t9.073-21.576q9.073-8.423 21.927-8.423 12.16 0 21.619-5.654 9.458-5.654 15.612-17.731 13.461-26.692 38.154-41.654 24.692-14.961 53.615-14.961 12.749 0 21.374 8.628 8.625 8.629 8.625 21.384Zm0 159.987q0 13.154-9.073 21.576-9.073 8.423-21.926 8.423-12.161 0-21.62 5.654-9.458 5.654-15.612 17.731-13.461 26.692-37.563 41.654-24.102 14.961-53.205 14.961-12.854 0-21.927-8.423-9.073-8.422-9.073-21.576t9.073-21.576q9.073-8.423 21.927-8.423 12.16 0 21.619-5.654 9.458-5.654 15.612-17.731 13.461-25.923 37.563-41.269 24.102-15.346 53.206-15.346 12.853 0 21.926 8.423 9.073 8.422 9.073 21.576ZM640-200H200h440-30.002H640Z"/></svg>

<svg xmlns="http://www.w3.org/2000/svg" height="24" viewBox="0 -960 960 960" width="24"><path d="M140-212.31V-680q0-57.75 41.13-98.87Q222.25-820 280-820h280q57.75 0 98.87 41.13Q700-737.75 700-680v10q0 12.75-8.66 21.38-8.65 8.62-21.45 8.62-12.04 0-20.97-9.23Q640-658.46 640-670v-10q0-33-23.5-56.5T560-760H280q-33 0-56.5 23.5T200-680v467.69q0 5.39 3.46 8.85t8.85 3.46h415.38q5.39 0 8.85-3.46t3.46-8.85V-250q0-12.75 8.63-21.38 8.63-8.62 21.38-8.62 12.76 0 21.37 8.62Q700-262.75 700-250v37.69q0 29.83-21.24 51.07Q657.52-140 627.69-140H212.31q-29.83 0-51.07-21.24Q140-182.48 140-212.31ZM420-340q57.75 0 98.87-41.13Q560-422.25 560-480q0-57.75-41.13-98.87Q477.75-620 420-620q-57.75 0-98.87 41.13Q280-537.75 280-480q0 57.75 41.13 98.87Q362.25-340 420-340Zm0-60q-33 0-56.5-23.5T340-480q0-33 23.5-56.5T420-560q33 0 56.5 23.5T500-480q0 33-23.5 56.5T420-400Zm435-199.99q0 12.76-8.63 21.37Q837.75-570 825-570q-12.69 0-22.39 5.65-9.69 5.66-15.84 17.73-13.46 26.7-37.57 41.66Q725.1-490 696-490q-12.85 0-21.93-8.42Q665-506.85 665-520q0-13.15 9.07-21.58Q683.15-550 696-550q12.16 0 21.62-5.65 9.46-5.66 15.61-17.73 13.46-26.7 38.15-41.66Q796.08-630 825-630q12.75 0 21.37 8.63 8.63 8.63 8.63 21.38ZM855-440q0 13.15-9.08 21.58Q836.85-410 824-410q-12.16 0-21.62 5.65-9.46 5.66-15.61 17.73-13.46 26.7-37.57 41.66Q725.1-330 696-330q-12.85 0-21.93-8.42Q665-346.85 665-360q0-13.15 9.07-21.58Q683.15-390 696-390q12.16 0 21.62-5.65 9.46-5.66 15.61-17.73 13.46-25.93 37.56-41.27Q794.89-470 824-470q12.85 0 21.92 8.42Q855-453.15 855-440ZM640-200H200h440-30 30Z"/></svg>
